img/menu_tw.svg

<svg height="19" viewBox="0 0 23.38 19" width="23.38" xmlns="http://www.w3.org/2000/svg"><path d="m23.38 2.25a9.48 9.48 0 0 1 -2.76.75 4.76 4.76 0 0 0 2.11-2.65 9.4 9.4 0 0 1 -3 1.16 4.8 4.8 0 0 0 -8.3 3.29 4.92 4.92 0 0 0 .12 1.09 13.61 13.61 0 0 1 -9.88-5 4.7 4.7 0 0 0 -.67 2.4 4.78 4.78 0 0 0 2.13 4 4.73 4.73 0 0 1 -2.17-.6v.06a4.81 4.81 0 0 0 3.85 4.71 4.86 4.86 0 0 1 -1.27.16 5.29 5.29 0 0 1 -.9-.08 4.81 4.81 0 0 0 4.46 3.32 9.6 9.6 0 0 1 -6 2.05 8.72 8.72 0 0 1 -1.1-.07 13.48 13.48 0 0 0 7.35 2.16 13.55 13.55 0 0 0 13.65-13.65c0-.21 0-.41 0-.62a9.72 9.72 0 0 0 2.38-2.48z" fill="#fff"/></svg>

<svg xmlns="http://www.w3.org/2000/svg" width="23.38" height="19" viewBox="0 0 23.38 19"><defs><style>.cls-1{fill:#fff;}</style></defs><g id="レイヤー_2" data-name="レイヤー 2"><g id="RollOver"><path class="cls-1" d="M23.38,2.25A9.48,9.48,0,0,1,20.62,3,4.76,4.76,0,0,0,22.73.35a9.4,9.4,0,0,1-3,1.16,4.8,4.8,0,0,0-8.3,3.29,4.92,4.92,0,0,0,.12,1.09,13.61,13.61,0,0,1-9.88-5A4.7,4.7,0,0,0,1,3.29a4.78,4.78,0,0,0,2.13,4,4.73,4.73,0,0,1-2.17-.6v.06a4.81,4.81,0,0,0,3.85,4.71,4.86,4.86,0,0,1-1.27.16,5.29,5.29,0,0,1-.9-.08A4.81,4.81,0,0,0,7.1,14.86a9.6,9.6,0,0,1-6,2.05A8.72,8.72,0,0,1,0,16.84,13.48,13.48,0,0,0,7.35,19,13.55,13.55,0,0,0,21,5.35c0-.21,0-.41,0-.62A9.72,9.72,0,0,0,23.38,2.25Z"/></g></g></svg>
